X: 74
T: Allah ü Ekber
C: Itrî
O: Turkey
F: http://compmusic.upf.edu/node/140
N: segah--tekbir--durakevferi--allah_u_ekber--itri
N: makam= segah
N: form= tekbir
N: usul= durakevferi = 21/4
M: 21/4
L: 1/16
K: C _1/4B _1/4e ^f 
Q: 1/4=72
%%MIDI tuningsystem comma53
B4 B8 B2B4c4c2 B2B2  | B6B2 B4 c8 z4 ^A4  | \
w:  Al la hü  ek ber  Al *  la  |  *  hü  ek ber   Lâ   | 
^A6B2 B6c2 d2c2 c2B2 B4  | 
w:  *  i lâ he  il *  lal *  la  | 
B6d2 d2c2 c6B2 B2A2 A4  | z8 d4 d6e2 f4 e2d2  | \
w:  *  hü  val *  la hü  ek *  ber    |  Al la hü  ek ber   | 
d2dc c8 c2B2 B12  | 
w:  ve  lil *  la hil  *  Hamd    | 
|


